Obsidian-SemiLight/actions/22s/format-currency.svg

<svg viewBox="0 0 22 22" xmlns="http://www.w3.org/2000/svg"><path d="m9 2v2.1308594c-.9771733.1418826-1.8093134.3990784-2.4628906.8007812-1.01055.6149-1.515625 1.5580781-1.515625 2.8300782-.0045585 2.1952921 1.5574744 2.9186712 3.9785156 3.5839842v4.990235c-1.1727207-.099011-2.2448911-.319434-3.3769531-.802735l-.6230469 1.355469c.56451.3013 1.3273025.562156 2.2890625.785156.5442756.122315 1.1112192.200577 1.7109375.253906v2.072266h1v-2.023438c.170103.004537.31439.023438.494141.023438.163513-.001299.336092-.015301.505859-.023438v2.023438h1v-2.119141c1.996756-.284852 3.979992-1.202256 3.958984-3.6875-.069983-1.829093-1.203121-2.50751-3.958984-3.476562v-4.9531251c.903264.1207438 2.002058.3722771 3.224609.9824219l.775391-1.5429688c-.55058-.2955-1.831094-.7664063-2.646484-.9414062-.433513-.0926134-.886518-.155605-1.353516-.1992188v-2.0625h-1v2.0136719c-.092209-.0017585-.178091-.0136719-.271484-.0136719-.256737 0-.487798.0203437-.728516.0332031v-2.0332031zm1.4375 3.6484375c.151023.0008281.362336.0094494.5625.0175781v4.7011724c-.157449-.052711-.25536-.093163-.421875-.148438-.178702-.043982-.384921-.108127-.578125-.160156v-4.3964846c.145876-.0063703.291583-.0136564.4375-.0136719zm-1.4375.1113281v3.9960938c-1.2269978-.4343737-2.3570439-1.0912003-2.3242188-2.1894532-.0595485-1.0413022 1.0044482-1.5907823 2.3242188-1.8066406zm1 5.8535154c.183873.046792.329816.092106.521484.140625.16101.045819.317397.097349.478516.144532v4.492187c-.149465.003087-.311388.018789-.451172.017578-.191478-.00178-.364669-.01399-.548828-.019531zm2 .597657c1.28148.448538 2.319728 1.035348 2.296875 2.064453-.03888 1.395694-1.131612 1.882894-2.296875 2.048828z" fill="#4d4d4d"/></svg>

<svg xmlns="http://www.w3.org/2000/svg" viewBox="0 0 22 22">
  <defs id="defs3051">
    <style type="text/css" id="current-color-scheme">
      .ColorScheme-Text {
        color:#4d4d4d;
      }
      </style>
  </defs>
 <path 
    style="fill:currentColor;fill-opacity:1;stroke:none" 
    d="M 9 2 L 9 4.1308594 C 8.0228267 4.272742 7.1906866 4.5299378 6.5371094 4.9316406 C 5.5265594 5.5465406 5.0214844 6.4897187 5.0214844 7.7617188 C 5.0169259 9.9570109 6.5789588 10.68039 9 11.345703 L 9 16.335938 C 7.8272793 16.236927 6.7551089 16.016504 5.6230469 15.533203 L 5 16.888672 C 5.56451 17.189972 6.3273025 17.450828 7.2890625 17.673828 C 7.8333381 17.796143 8.4002817 17.874405 9 17.927734 L 9 20 L 10 20 L 10 17.976562 C 10.170103 17.981099 10.31439 18 10.494141 18 C 10.657654 17.998701 10.830233 17.984699 11 17.976562 L 11 20 L 12 20 L 12 17.880859 C 13.996756 17.596007 15.979992 16.678603 15.958984 14.193359 C 15.889001 12.364266 14.755863 11.685849 12 10.716797 L 12 5.7636719 C 12.903264 5.8844157 14.002058 6.135949 15.224609 6.7460938 L 16 5.203125 C 15.44942 4.907625 14.168906 4.4367187 13.353516 4.2617188 C 12.920003 4.1691054 12.466998 4.1061138 12 4.0625 L 12 2 L 11 2 L 11 4.0136719 C 10.907791 4.0119134 10.821909 4 10.728516 4 C 10.471779 4 10.240718 4.0203437 10 4.0332031 L 10 2 L 9 2 z M 10.4375 5.6484375 C 10.588523 5.6492656 10.799836 5.6578869 11 5.6660156 L 11 10.367188 C 10.842551 10.314477 10.74464 10.274025 10.578125 10.21875 C 10.399423 10.174768 10.193204 10.110623 10 10.058594 L 10 5.6621094 C 10.145876 5.6557391 10.291583 5.648453 10.4375 5.6484375 z M 9 5.7597656 L 9 9.7558594 C 7.7730022 9.3214857 6.6429561 8.6646591 6.6757812 7.5664062 C 6.6162327 6.525104 7.6802294 5.9756239 9 5.7597656 z M 10 11.613281 C 10.183873 11.660073 10.329816 11.705387 10.521484 11.753906 C 10.682494 11.799725 10.838881 11.851255 11 11.898438 L 11 16.390625 C 10.850535 16.393712 10.688612 16.409414 10.548828 16.408203 C 10.35735 16.406423 10.184159 16.394213 10 16.388672 L 10 11.613281 z M 12 12.210938 C 13.28148 12.659476 14.319728 13.246286 14.296875 14.275391 C 14.257995 15.671085 13.165263 16.158285 12 16.324219 L 12 12.210938 z "
    class="ColorScheme-Text"
    />  
</svg>
